X:1
L:1/8
M:12/8
K:A
 E | A>Bc B2 A (e3 e2) E | F>GA G2 F (c3 c2) C | D>EF E2 A G>AB A2 c | ^d>cB f2 B (e3 e2) E | 
 A>Bc{Bc} B2 A (e3 e2) E | F>GA{GA} G2 F (c3 c2) c | d>ef e2 d c2 e A2 G | F>GA{B} A2 G (A3 A2) c | 
 cag{fg} fed{cd} (c3 c2) A | Gdc{Bc} BAG{FG} (F3 F2) G/A/ | Bc^d eGc (B3 B2) E | 
 F>GA G2 F (E3 E2) E | A>Bc B2 A (e3 e2) E | F>GA G2 F (c3 c2) c | d>ef e2 d c2 e a2 A | 
 B>cd c2 B (A3 A2) ||
